src/icons/lolcode.svg

<svg viewBox="0 0 24 24" xmlns="http://www.w3.org/2000/svg">
  <path
    d="M12 7.68699L10.65 7.77799C9.778 6.74299 7.332 4.13499 4.896 4.13499C4.896 4.13499 2.897 7.13899 4.856 11.148C4.297 11.99 3.952 12.426 3.881 13.431L1.923 13.725L2.136 14.72L3.922 14.456L4.064 15.176L2.471 16.13L2.948 17.034L4.419 16.13C5.586 18.607 8.539 19.865 12 19.865C15.46 19.865 18.414 18.607 19.58 16.13L21.052 17.034L21.529 16.13L19.936 15.177L20.078 14.456L21.864 14.72L22.077 13.725L20.119 13.431C20.048 12.426 19.703 11.99 19.144 11.148C21.103 7.13899 19.104 4.13499 19.104 4.13499C16.668 4.13499 14.223 6.74299 13.35 7.77799L12 7.68699ZM8.956 10.731C9.22503 10.7313 9.48294 10.8383 9.67307 11.0286C9.8632 11.219 9.97 11.477 9.97 11.746C9.97 12.015 9.8632 12.273 9.67307 12.4634C9.48294 12.6537 9.22503 12.7607 8.956 12.761C8.68681 12.761 8.42864 12.6541 8.23829 12.4637C8.04794 12.2734 7.941 12.0152 7.941 11.746C7.941 11.4768 8.04794 11.2186 8.23829 11.0283C8.42864 10.8379 8.68681 10.731 8.956 10.731ZM15.045 10.731C15.314 10.7313 15.5719 10.8383 15.7621 11.0286C15.9522 11.219 16.059 11.477 16.059 11.746C16.059 12.015 15.9522 12.273 15.7621 12.4634C15.5719 12.6537 15.314 12.7607 15.045 12.761C14.7758 12.761 14.5176 12.6541 14.3273 12.4637C14.1369 12.2734 14.03 12.0152 14.03 11.746C14.03 11.4768 14.1369 11.2186 14.3273 11.0283C14.5176 10.8379 14.7758 10.731 15.045 10.731ZM10.985 13.776H13.015L12.305 15.186C12.508 15.836 13.075 16.313 13.776 16.313C14.1797 16.313 14.5668 16.1526 14.8522 15.8672C15.1377 15.5818 15.298 15.1947 15.298 14.791H15.806C15.806 15.3294 15.5921 15.8457 15.2114 16.2264C14.8307 16.6071 14.3144 16.821 13.776 16.821C13.015 16.821 12.356 16.405 12 15.806C11.8174 16.1147 11.5577 16.3705 11.2463 16.5485C10.9349 16.7264 10.5826 16.8203 10.224 16.821C9.68561 16.821 9.16928 16.6071 8.78858 16.2264C8.40788 15.8457 8.194 15.3294 8.194 14.791H8.702C8.702 15.1947 8.86236 15.5818 9.14779 15.8672C9.43322 16.1526 9.82034 16.313 10.224 16.313C10.924 16.313 11.492 15.836 11.695 15.187L10.985 13.776Z"
    fill="#EF5350"
  />
</svg>

<svg viewBox="0 0 24 24" xmlns="http://www.w3.org/2000/svg"><path d="m12 7.687-1.35.091c-.872-1.035-3.318-3.643-5.754-3.643 0 0-1.999 3.004-.04 7.013-.559.842-.904 1.278-.975 2.283l-1.958.294.213.995 1.786-.264.142.72-1.593.954.477.904 1.471-.904c1.167 2.477 4.12 3.735 7.581 3.735 3.46 0 6.414-1.258 7.58-3.735l1.472.904.477-.904-1.593-.953.142-.721 1.786.264.213-.995-1.958-.294c-.071-1.005-.416-1.441-.975-2.283 1.959-4.009-.04-7.013-.04-7.013-2.436 0-4.881 2.608-5.754 3.643L12 7.687m-3.044 3.044a1.015 1.015 0 0 1 1.014 1.015 1.015 1.015 0 0 1-1.014 1.015 1.015 1.015 0 0 1-1.015-1.015 1.015 1.015 0 0 1 1.015-1.015m6.089 0a1.015 1.015 0 0 1 1.014 1.015 1.015 1.015 0 0 1-1.014 1.015 1.015 1.015 0 0 1-1.015-1.015 1.015 1.015 0 0 1 1.015-1.015m-4.06 3.045h2.03l-.71 1.41c.203.65.77 1.127 1.471 1.127a1.522 1.522 0 0 0 1.522-1.522h.508a2.03 2.03 0 0 1-2.03 2.03c-.761 0-1.42-.416-1.776-1.015a2.068 2.068 0 0 1-1.776 1.015 2.03 2.03 0 0 1-2.03-2.03h.508a1.522 1.522 0 0 0 1.522 1.522c.7 0 1.268-.477 1.471-1.126z" style="fill:#ef5350;stroke-width:1.0148"/></svg>
